X:1
T:Fantasia super Valet will ich dir geben.
T:J. S. Bach
%%score { ( 1 2 6 ) | ( 3 5 ) | 4 } 7 8
L:1/8
Q:1/4=72
M:4/4
K:Bb
V:1 treble nm="Organ"
V:2 treble 
V:6 treble 
V:3 bass 
V:5 bass 
V:4 bass 
V:7 bass-8 nm="Organ"
V:8 bass-8 nm="Organ"
V:1
 z2 | z8 | z8 | z8 | z4 z2 F2 | B2 B2 d2 =e2 | f2- f/g/f/=e/ f2 z/ g/f/_e/ | %7
 d/e/d/c/ B/f/b/_a/ g/_a/g/f/ e/f/e/d/ | c2- c/c/d/e/ fe d/f/e/d/ | c/d/c/B/ A/G/A/F/ Bg f/g/f/e/ | %10
 d/e/d/c/ B/c/B/A/ B2 z2 | z8 | z2 a2 g2 f2 | f2 =e2 f2 z/ b/a/g/ | ^fd z/ a/g/=f/ _ec z/ g/f/e/ | %15
 d/e/d/c/ B>c d2- d/=f/_e/d/ | c2- c/e/d/c/ B2 z/ B/A/G/ | F/G/F/E/ Dd c/d/c/B/ Ac' | %18
 b/c'/b/a/ gc' a/b/a/g/ f/g/f/e/ | d2 z2 z4 | z/ c/d/e/ f/g/f/e/ d/e/d/c/ B/f/e/d/ | %21
 c/d/c/B/ A/G/A/F/ Bg f/g/f/e/ | d/e/d/c/ B/c/B/A/ B2 z2 | z8 | z2 a2 g2 f2 | f2 =e2 f2 z/ b/a/g/ | %26
 ^fd z/ a/g/=f/ e2 z/ g/f/e/ | d/e/d/c/ B>c d2- d/=f/_e/d/ | c2- c/e/d/c/ B2 z/ C/B,/A,/ | %29
 B,2 z/ A/B/c/ d2 d>e | c>d B>c A2- A/B/A/G/ | F2 z/ =e/f/g/ a2 a>b | g>a f>g =e2- e/f/e/d/ | %33
 c2- c/d/c/B/ A/B/A/G/ F z | z/ A/B/c/ d/c/d/e/ f2 f>g | e>f d>e c2- c/c/d/=e/ | %36
 f/=e/f/g/ a/g/a/b/ c'/ z/ z z2 | z2 z/ a/b/c'/ b/a/g/f/ =e/d/c/B/ | A2 z2 z4 | %39
 z/ G/A/=B/ c2- c c2 =B | z/ c/=B/A/ G/F/=E/D/ C/E/D/C/ F2 | z/ c/d/=e/ f2- f f2 e | %42
 f2- f/g/f/=e/ f2 z A | z/ F/B z/ c/B/A/ B/d/c/B/ c2 | A>B c2 d2 z/ _E/D/C/ | F>G FE D/d/c/B/ f2 | %46
 d>e f2 g2 f2 | f2 z/ g/f/e/ d2 z2 | z b a/g/a/f/ b3 a- | a g2 ^f g/d/ e2 d- | %50
 d c2 B- BA z/ F/G/A/ | B2 z/ B/c/d/ e2 z/ e/f/g/ | z/ c/d/e/ z d- dc- c/F/B- | %53
 B/G/c/G/ A2 z/ F/B/G/ A2 | B2 A2 G2 G2 | F z z2 z/ A/B/c/ d/e/f/d/ | %56
 g/f/g/e/ f/e/f/d/ e/g/c'/b/ a/g/f/e/ | d/c/d/e/ f2 z/ g/f/e/ f/e/f/d/ | %58
 e/f/g/d/ e/c/f/c/ d/e/f/d/ e/B/b/f/ | g4 x2 g2- | g/e/c/e/ f/c/d/A/ B/c/d/A/ B/F/G/D/ | %61
 E/F/G/D/ E2- E4 | z/[I:staff +1] F,/G,/A,/ B,/A,/B,/C/[I:staff -1] D/C/D/E/ F/E/F/G/ | %63
 _A/c/B/A/ G/B/c/d/ e/d/e/f/[Q:1/4=68] g/[Q:1/4=60]f/[Q:1/4=48]g/[Q:1/4=32]a/ | %64
[Q:1/4=72] !fermata![Fb]8 |] %65
V:2
 B,2 | F2 F2 G2 PTA3/2G/4A/4 | B2- B/c/B/A/ B2 z/"^BWV 735" d/c/B/ | %3
 A/G/A/F/ B2- B/A/B/G/ _A/E/A- | A/_A/G/F/ G/B/A/G/ F2 z/ G/F/E/ | D2 z2 z/ c/B/A/ G/B/A/G/ | %6
 A/B/A/G/ FGC[I:staff +1]B,/A,/ B,C | DE F2 G[I:staff -1]=A B2- | B/B/A/G/ A2 z/ F/G/A/ B2 | %9
 z2 z F E/F/E/D/ Cc | B2 z2 z2 d2 | c2 B2 B2 A2 | B/d/c/B/ Af =e/d/e/^c/ dA | %13
 z/ c/B/A/ G/d/c/B/ A/B/A/G/ FB | A/G/A/^F/ G2- G/=F/G/_E/ F2- | F/G/F/E/ DG A/G/A/^F/ G2- | %16
 G/=F/G/E/ F2- F/G/F/E/ D2 | z/ E/D/C/ B,B A z z a | g z z g f z z/ _e/d/c/ | %19
 B/c/B/_A/ G/B/c/d/ e/f/e/d/ c/d/c/B/ | A/ x7/2 z/ G/F/E/ D/ x3/2 | z2 z F E/F/E/D/ Cc | %22
 B2 z2 z2 d2 | c2 B2 B2 A2 | B/d/c/B/ Af =e/d/e/^c/ dA | z/ c/B/A/ G/d/c/B/ A/B/A/G/ FB | %26
 A/G/A/^F/ G2- G/=F/G/_E/ F2- | F/G/F/E/ DG A/G/A/^F/ G2- | %28
 G/=F/G/E/ F2- F/G/F/E/ D/[I:staff +1]E/D/C/ | x4[I:staff -1] z/ F/G/A/ B/F/B- | %30
 B/=E/A- A/D/G- G/C/D/=E/ F2 | z/ C/[I:staff +1]C/B,/ A,2[I:staff -1] z4 | z4 z2 z/ A/G/F/ | %33
 =E/F/E/D/ C2- C/D/C/B,/[I:staff +1] A,/[I:staff -1]C/D/_E/ | F2 z2 z/ F/G/A/ B/F/B- | %35
 B/E/A- A/D/G- G/C/D/=E/ F/E/F/G/ | A/ z/ z z2 z/ =E/F/G/ A z | %37
 z/[I:staff +1] C/D/=E/ F2- F F2 =E | %38
[I:staff -1] z/ F/=E/D/ C/[I:staff +1]B,/A,/G,/ F,/A,/G,/F,/ C2 | %39
[I:staff -1] z2 z/ =E/F/G/ F/E/[I:staff +1]D/C/ =B,/A,/G,/F,/ | x8 | %41
 D2[I:staff -1] z/ c/B/A/ dB GA/B/ | c/d/c/B/ A/B/A/G/ F2 F2 | D>_E F2 G2 z =E | %44
 z/ C/F z/ G/F/=E/ F2 z[I:staff +1] A, | x8 |[I:staff -1] z/ F/B z/ c/B/A/ G/A/B- BA | %47
 z/ F/B x A B2 A/G/A/F/ | Bd f2 z f e/d/e/c/ | dd c/B/c/A/ BB _A/G/A/F/ | GG F/E/F/D/ E/D/E/C/ D2 | %51
 z/ D/E/F/ G2 z/ G/A/B/ c2 | A2 FB/D/ E2 D2 | C2 C2 B,2 z/ C/F/A/- | AG- G/C/F- F/D/G/F/ =E2 | %55
 F/=E/F/G/ A/G/A/B/ c/ z/ z z2 | x8 | x8 |[I:staff +1] G2 E2 F2[I:staff -1] z2 | %59
 z/ B/c/d/ e/d/e/f/ g/_a/b/f/ z/ d/e- | [Be]/ z/ z z2[I:staff +1] D[I:staff -1] z z2 | %61
[I:staff +1] B,[I:staff -1] z z/ B,/C- C/B,/C- C2 | x8 | x6 z E | x8 |] %65
V:3
 z2 | z4 z2 F,2 | B,2 B,2 D2 PT=E3/2D/4E/4 | F2 z/ G/F/_E/ D/C/D/B,/ C/B,/C/D/ | %4
 EB, E2- E/E/D/C/ D/E/D/C/ | B,/C/D/C/ B,/C/B,/A,/ G,B,CC, | F,G,A,B,- B,/A,/G,/F,/ G,A, | %7
 B,CDB, EFGE | F2- FE D2- D/D/C/B,/ | A,/B,/A,/G,/ F, z z4 | %10
[K:treble] z/ G/F/E/ D/E/D/C/ D2 z/ B/A/G/ | ^FD z/ A/G/=F/ EC z/ G/F/E/ | %12
 DB, z/ F/=E/D/ ^CA,[K:bass] z/ =E/D/=C/ | B,G,CC, F, z D2 | C2 B,2 B,2 A,2 | %15
 B,2 z/ B,/A,/G,/ ^F,/=E,/F,/D,/ G,/A,/G,/=F,/ | _E,/D,/E,/C,/ F,/G,/F,/E,/ D,/E,/D,/C,/ B,,2 | %17
 z2 z/ D,/C,/B,,/ F,F,, z/ ^F,/=E,/D,/ | G,G,, z/ =E,/D,/C,/ F,F,, z2 | %19
[K:treble] z/ _A/G/F/ E/F/E/D/[K:bass] C/D/C/B,/ =A,/B,/A,/G,/ | %20
 F,/G,/F,/E,/ D,/E,/D,/C,/ B,,/ z/ z z/ D/C/B,/ | A,/B,/A,/G,/ F, z z4 | %22
[K:treble] z/ G/F/E/ D/E/D/C/ D2 z/ B/A/G/ | ^FD z/ A/G/=F/ EC z/ G/F/E/ | %24
 DB, z/ F/E/D/ ^CA,[K:bass] z/ =E/D/=C/ | B,G,CC, F, z D2 | C2 B,2 B,2 A,2 | %27
 B,2 z/ B,/A,/G,/ ^F,/=E,/F,/D,/ G,/A,/G,/=F,/ | _E,/D,/E,/C,/ F,/G,/F,/E,/ D,/E,/D,/C,/ B,,2- | %29
 B,,2 z2 z4 | z4 z2 z/ D/C/B,/ | A,/B,/A,/G,/ F,2 z/ C/D/=E/ F/C/F- | %32
 F/=B,/=E- E/A,/D- D/G,/A,/=B,/ C2- | C/D/C/B,/ A,/B,/A,/G,/ F,2 z/ G,/F,/E,/ | %34
 D,/E,/D,/C,/ B,, z z4 | z8 | z/ C,/D,/=E,/ F,/E,/F,/G,/ A,/G,/A,/B,/ C/F,/G,/A,/ | %37
 B,2 A,2 G,2 G,2 | F,2 z2 z2 z/ C,/D,/=E,/ | F,2 =E,2 D,2 D,2 | C,2 z2 z4 | %41
 z2 z/ A,/B,/C/ B,/A,/G,/F,/ =E,/D,/C,/B,,/ | %42
 A,,/B,,/A,,/G,,/ F,,/D/C/B,/ A,/B,/A,/G,/ F,/A,/G,/F,/ | B,2 z2 z2 z/ =E,/D,/C,/ | %44
 F,>G, A,A,, z/ D,/C,/B,,/ F,2 | z/ F,/B, z/ C/B,/A,/ B,2 z[I:staff -1] A | %46
[I:staff +1] B,>C D2 E/F/E/D/ C/B,/C/A,/ | D2 z C B,/A,/B,/G,/ CE | D/C/D/B,/ C2 z/ D/C/B,/ CF, | %49
[K:treble] B,/B/A/G/ AD[K:bass] G/G,/=F,/E,/ F,B,, | E,/E/D/C/ DG, CF, B,/C/B,/A,/ | %51
 G,/A,/G,/F,/ E,/F,/E,/D,/ C,/D,/C,/B,,/ A,,/B,,/A,,/G,,/ | %52
 F,,/G,/F,/E,/ D,/C,/D,/B,,/ G,/F,/G,/A,/ B,>D, | E,2- E,/C,/F,/E,/ D,/C,/D,/B,,/ F,/G,/F,/=E,/ | %54
 D,/C,/D,/=E,/ F,>A,, B,,2- B,,/G,,/C,/B,,/ | %55
 A,,/B,,/A,,/G,,/ F,,/=E,/F,/G,/ A,/F,/G,/A,/ B,/C/D/B,/ | %56
[K:treble] z/ G/c- c/F/B- BA/G/ A/B/G/A/ | B2 z/ F/B/A/ G2 F2 | %58
 B,3 _A,- A,/C/B,/A,/[K:bass] G,/A,/G,/F,/ | %59
 E,/D,/E,/F,/ G,/F,/G,/_A,/ B,/B,,/C,/D,/ E,/G,,/F,,/E,,/ | B,, z z2 F, z z2 | %61
 G, z z z/ G,/ A,>G, z/ E,/F,/C,/ | D,2- D,/C,/D,/E,/ F,/G,/F,/E,/ D,/E,/D,/C,/ | %63
 B,,/B,/C/D/[I:staff -1] E/D/E/F/ G/_A/G/F/ E/D/E/C/ | !fermata!D8 |] %65
V:4
 z2 | z8 | z8 | z8 | z8 | z8 | z8 | z8 | z4 z2 B,,2 | F,2 F,2 G,2 A,2 | B,4 B,2 z2 | z8 | z8 | z8 | %14
 z8 | z2 D2 C2 B,2 | B,2 A,2 B,4 | z8 | z8 | z8 | z4 z2 B,,2 | F,2 F,2 G,2 A,2 | B,4 B,2 z2 | z8 | %24
 z8 | z8 | z8 | z2 D2 C2 B,2 | B,2 A,2 B,4- | B,2 z2 z4 | z8 | z8 | z8 | z8 | z2 B,C D2 D2 | %35
 C2 B,2 A,3 G, | F,6 z2 | z8 | z8 | z8 | z4 z2 A,2 | B,2 A,2 G,2 G,2 | F,6 z2 | z8 | z8 | z8 | %46
 z4 z2 F,2 | D,>E, F,2 G,2 F,2 | F,3 E, D,2 z2 | z8 | z8 | z8 | z8 | z8 | z8 | z8 | z8 | %57
 z2 D,2 E,2 D,2 | C,2 C,2 B,,4- | B,,8- | B,,8- | B,,8- | B,,8- | B,,8- | !fermata!B,,8 |] %65
V:5
 x2 | x8 | x8 | x8 | x8 | x8 | x8 | x8 | x8 | x8 |[K:treble] x8 | x8 | x6[K:bass] x2 | x8 | x8 | %15
 x8 | x8 | x8 | x8 |[K:treble] x4[K:bass] x4 | x13/2 z/ z | x8 |[K:treble] x8 | x8 | %24
 x6[K:bass] x2 | x8 | x8 | x8 | x8 | D,2 z2 x4 | x8 | x8 | x8 | x8 | x8 | x8 | x8 | x8 | x8 | x8 | %40
 =E,2 z2 z2 z/ C/_B,/A,/ | x8 | x8 | x8 | x8 | D,>E, F,2 G,2 z/ A,/G,/F,/ | x8 | x8 | x8 | %49
[K:treble] x4[K:bass] x4 | x8 | x8 | x8 | x8 | x8 | x8 |[K:treble] E2 D2 C2 C2 | %57
 B,/A,/B,/C/ D2- D C2 B,- | x6[K:bass] x2 | x8 | x8 | x6 A,2 | x8 | x8 | x8 |] %65
V:6
 x2 | x8 | x8 | x8 | x8 | x8 | x8 | x8 | x8 | x8 | x8 | x8 | x8 | x8 | x8 | x8 | x8 | x8 | x8 | %19
 x8 | x8 | x8 | x8 | x8 | x8 | x8 | x8 | x8 | x8 | x8 | x8 | x8 | x8 | x8 | x8 | x8 | x8 | x8 | %38
 x8 | x8 | x8 | x8 | x8 | x8 | x8 | x8 | x8 | x8 | x8 | x8 | x8 | x8 | x8 | x8 | x8 | x8 | x8 | %57
 x8 | x8 | x6 z z/ B/- | x8 | x8 | x8 | x8 | x8 |] %65
V:7
 z2 | z8 | z8 | z8 | z8 | z8 | z8 | z8 | z4 z2 B,,2 | F,2 F,2 G,2 A,2 | B,4 B,2 z2 | z8 | z8 | z8 | %14
 z8 | z2 D2 C2 B,2 | B,2 A,2 B,4 | z8 | z8 | z8 | z4 z2 B,,2 | F,2 F,2 G,2 A,2 | B,4 B,2 z2 | z8 | %24
 z8 | z8 | z8 | z2 D2 C2 B,2 | B,2 A,2 B,4- | B,2 z2 z4 | z8 | z8 | z8 | z8 | z2 B,C D2 D2 | %35
 C2 B,2 A,3 G, | F,6 z2 | z8 | z8 | z8 | z4 z2 A,2 | B,2 A,2 G,2 G,2 | F,6 z2 | z8 | z8 | z8 | %46
 z4 z2 F,2 | D,>E, F,2 G,2 F,2 | F,3 E, D,2 z2 | z8 | z8 | z8 | z8 | z8 | z8 | z8 | z8 | %57
 z2 D,2 E,2 D,2 | C,2 C,2 B,,4- | B,,8- | B,,8- | B,,8- | B,,8- | B,,8- | !fermata!B,,8 |] %65
V:8
"^Instrument" z2 | z8 | z8 | z8 | z8 | z8 | z8 | z8 | z4 z2 B,,2 | F,2 F,2 G,2 A,2 | B,4 B,2 z2 | %11
 z8 | z8 | z8 | z8 | z2 D2 C2 B,2 | B,2 A,2 B,4 | z8 | z8 | z8 | z4 z2 B,,2 | F,2 F,2 G,2 A,2 | %22
 B,4 B,2 z2 | z8 | z8 | z8 | z8 | z2 D2 C2 B,2 | B,2 A,2 B,4- | B,2 z2 z4 | z8 | z8 | z8 | z8 | %34
 z2 B,C D2 D2 | C2 B,2 A,3 G, | F,6 z2 | z8 | z8 | z8 | z4 z2 A,2 | B,2 A,2 G,2 G,2 | F,6 z2 | z8 | %44
 z8 | z8 | z4 z2 F,2 | D,>E, F,2 G,2 F,2 | F,3 E, D,2 z2 | z8 | z8 | z8 | z8 | z8 | z8 | z8 | z8 | %57
 z2 D,2 E,2 D,2 | C,2 C,2 B,,4- | B,,8- | B,,8- | B,,8- | B,,8- | B,,8- | !fermata!B,,8 |] %65

